img/phone.svg

<svg width="29" height="29" viewBox="0 0 29 29" fill="none" xmlns="http://www.w3.org/2000/svg">
<path d="M28.2107 21.2831L24.1636 17.236C22.7183 15.7907 20.2611 16.3689 19.683 18.2478C19.2494 19.5487 17.804 20.2714 16.5032 19.9822C13.6124 19.2596 9.70994 15.5016 8.98726 12.4663C8.55365 11.1654 9.42087 9.72006 10.7217 9.2865C12.6007 8.70836 13.1788 6.25123 11.7335 4.80586L7.68642 0.758819C6.53013 -0.25294 4.79568 -0.25294 3.78393 0.758819L1.03772 3.50502C-1.70848 6.39576 1.3268 14.0562 8.12004 20.8495C14.9133 27.6427 22.5737 30.8226 25.4645 27.9318L28.2107 25.1856C29.2225 24.0293 29.2225 22.2948 28.2107 21.2831Z" fill="black"/>
</svg>

<svg width="29" height="29" fill="none" xmlns="http://www.w3.org/2000/svg"><path d="M28.21 21.283l-4.046-4.047c-1.446-1.445-3.903-.867-4.481 1.012-.434 1.3-1.879 2.023-3.18 1.734-2.89-.722-6.793-4.48-7.516-7.516-.433-1.3.434-2.746 1.735-3.18 1.879-.578 2.457-3.035 1.011-4.48L7.686.759C6.53-.253 4.796-.253 3.784.759L1.038 3.505c-2.746 2.89.289 10.551 7.082 17.344 6.793 6.794 14.454 9.974 17.345 7.083l2.746-2.746c1.012-1.157 1.012-2.891 0-3.903z" fill="#000"/></svg>
